packages/dnb-ui-lib/assets/icons/send.svg

<svg width="16" height="16" viewBox="0 0 16 16" fill="none" xmlns="http://www.w3.org/2000/svg">
<path d="M7.22475 10.2591L10.4662 14.5862C10.7125 14.9144 11.1294 15.0661 11.529 14.973C11.9286 14.8799 12.2356 14.5595 12.3115 14.1563L14.5513 2.2277C14.628 1.82369 14.4582 1.41259 14.1187 1.18051C13.7792 0.948433 13.3345 0.939433 12.9859 1.15759L1.4866 8.34599C1.09499 8.59078 0.912883 9.06536 1.04021 9.50928C1.16754 9.95321 1.57351 10.2591 2.03534 10.2591H7.22475ZM7.22475 10.2591L5.66936 10.2591V13.4763C5.66933 13.8598 5.88148 14.2119 6.22058 14.3911C6.55969 14.5703 6.9701 14.5472 7.28696 14.3311L9.26418 12.9835L7.22475 10.2591ZM7.22413 10.2591L14.1176 1.18185" stroke="black" stroke-width="1.5" stroke-linecap="round" stroke-linejoin="round"/>
</svg>

<svg width="16" height="16" viewBox="0 0 16 16" fill="none" xmlns="http://www.w3.org/2000/svg"><path d="M7.225 10.26l3.241 4.326a1.035 1.035 0 001.846-.43l2.24-11.928a1.035 1.035 0 00-1.566-1.07l-11.5 7.188a1.035 1.035 0 00.55 1.913h5.189zm0 0H5.669v3.216a1.035 1.035 0 001.618.855l1.977-1.348-2.04-2.724zm0 0l6.893-9.078" stroke="#000" stroke-width="1.5" stroke-linecap="round" stroke-linejoin="round"/></svg>
